X: 39125
T: Sweet Flowers Of Milltown, The
R: barndance
M: 4/4
K: Dmajor
~G3B AGEF|GFGB d3d|edge dBAG|GAFG EFDE|
G2GB AGEF|GFGB dGBd|e2ge dBAG|AGFA GDEF:|2 AGFA G2Bd||
~g3z abaf|gage d2Bd|edge dBAG|GAFG EFD2|
~g3z ~a3f|~g3e dGBd|e2ge dBAG|AGFA G2Bd|
~g3z abaf|gage dGBd|edge dBAG|GAFG EFD2|
~G3B AGEF|GFGB d3d|edge dBAG|A2F2 G2z2||

